icons/chevron-left.svg

<svg width="24" height="24" viewBox="0 0 24 24" fill="none" xmlns="http://www.w3.org/2000/svg">
<path fill-rule="evenodd" clip-rule="evenodd" d="M15.1803 5.81977C15.4732 6.11266 15.4732 6.58753 15.1803 6.88043L10.1803 11.8804C10.1165 11.9443 10.1 12.0053 10.1 12.0501C10.1 12.0945 10.1161 12.1547 10.1784 12.2178L15.1749 17.1144C15.4708 17.4044 15.4756 17.8792 15.1856 18.175C14.8957 18.4709 14.4209 18.4757 14.125 18.1858L9.11963 13.2805C8.42674 12.5876 8.42677 11.5127 9.11966 10.8198L14.1197 5.81977C14.4126 5.52687 14.8874 5.52687 15.1803 5.81977Z" fill="black"/>
</svg>

<svg xmlns="http://www.w3.org/2000/svg" fill="none" viewBox="0 0 24 24">
  <path fill="#000" fill-rule="evenodd" d="M15.18 5.82a.75.75 0 0 1 0 1.06l-5 5a.24.24 0 0 0-.08.17.24.24 0 0 0 .078.168l4.997 4.896a.75.75 0 1 1-1.05 1.072L9.12 13.28a1.716 1.716 0 0 1 0-2.461l5-5a.75.75 0 0 1 1.06 0Z" clip-rule="evenodd"/>
</svg>
